X:1
T:O Maria, Mari   (Am,A)
T:O Maria, Mari   (Am,A)
T:Eduardo di Capua (1865-1917)
C:Eduardo di Capua (1865-1917)
L:1/8
M:6/8
K:C
V:1 treble 
V:1
"^Intro" x6 | B/c/de |"Am" c e2"E7" B/c/de |"Am" c e2"E7" ^g/a/bc' |"Am" a e2"E7" B/c/de | %5
"Am" A3 z3 | z3 ||"A" x6 |: z2 e |"Am" c'3-"E7" c'b/a/^g/b/ |"Am" a/^g/ a2- a2 z | %11
"Dm" a3- aa/^g/a/f/ |"Am" e/^d/ e2- e2 z |"E7" d3- dd/=c/d/e/ |"Am" =c3 c2 z | %15
"Dm" B3-"E7" BB/^A/B/c/ |1"Am" A3 :|2[K:A]"A""B" A3 |: z [CA][DB] |"A" [CA]3- [CA][DF][EG] | %20
 [CE]3- [CE][CE][CE] | [CF][CF][CG] [CG][CG][CE] |"Bm" [DF]3- [DF]3 |"E7" [EG]3 [EA]2 [EB] | %24
 (3[EG]/[FA]/[EG]/ [DF]2- [DF][DF][DF] | [EG][EG][EG] [EG][FA]>[GB] | %26
"A" (3[DF]/[EG]/[DF]/ [CE]2- [CE][CA][DB] |"A" [CA]3- [CA][DF][EG] | [CE]3- [CE][CA][DB] | %29
"F7" [Ec][Ec][^D=B] [Ec][Fd][=Ge] |"Bm" (3[Ec]/[Fd]/[Ec]/ [DB]2- [DB][DB][Ec] | %31
"D" [Fd]3"Dm" [D=FB]2 [DFc] |"A" [CE-A-]3 [CEA][DF][EG] |"E7" [DE]3- [DE][DGB][DGc] |"A" [CEA]3 :| %35

